svgs/regular/backpack.svg

<svg xmlns="http://www.w3.org/2000/svg" viewBox="0 0 448 512"><!-- Font Awesome Pro 6.0.0-alpha2 by @fontawesome - https://fontawesome.com License - https://fontawesome.com/license (Commercial License) --><path d="M320 80H312V56C312 25.125 286.875 0 256 0H192C161.125 0 136 25.125 136 56V80H128C57.25 80 0 137.25 0 208V448C0 483.375 28.625 512 64 512H384C419.375 512 448 483.375 448 448V208C448 137.25 390.75 80 320 80ZM184 56C184 51.625 187.625 48 192 48H256C260.375 48 264 51.625 264 56V80H184V56ZM320 464H128V400H320V464ZM320 352H128V320C128 302.375 142.375 288 160 288H288C305.625 288 320 302.375 320 320V352ZM400 448C400 456.875 392.875 464 384 464H368V320C368 275.875 332.125 240 288 240H160C115.875 240 80 275.875 80 320V464H64C55.125 464 48 456.875 48 448V208C48 163.875 83.875 128 128 128H320C364.125 128 400 163.875 400 208V448ZM304 160H144C135.125 160 128 167.125 128 176V192C128 200.875 135.125 208 144 208H304C312.875 208 320 200.875 320 192V176C320 167.125 312.875 160 304 160Z"/></svg>

<svg xmlns="http://www.w3.org/2000/svg" viewBox="0 0 448 512"><!-- Font Awesome Pro 5.15.1 by @fontawesome - https://fontawesome.com License - https://fontawesome.com/license (Commercial License) --><path d="M320 80h-8V56c0-30.88-25.12-56-56-56h-64c-30.88 0-56 25.12-56 56v24h-8C57.31 80 0 137.31 0 208v240c0 35.35 28.65 64 64 64h320c35.35 0 64-28.65 64-64V208c0-70.69-57.31-128-128-128zM184 56c0-4.41 3.59-8 8-8h64c4.41 0 8 3.59 8 8v24h-80V56zm136 408H128v-64h192v64zm0-112H128v-32c0-17.67 14.33-32 32-32h128c17.67 0 32 14.33 32 32v32zm80 96c0 8.82-7.18 16-16 16h-16V320c0-44.11-35.89-80-80-80H160c-44.11 0-80 35.89-80 80v144H64c-8.82 0-16-7.18-16-16V208c0-44.11 35.89-80 80-80h192c44.11 0 80 35.89 80 80v240zm-96-288H144c-8.84 0-16 7.16-16 16v16c0 8.84 7.16 16 16 16h160c8.84 0 16-7.16 16-16v-16c0-8.84-7.16-16-16-16z"/></svg>
